X:2036
M:2/4
L:1/4
K:F
|: C | FA cf/g/ | fe ed | cB A/B/A/G/ | GF FC | FA cf/g/ | fe ed | cB A/B/A/G/ | A zz :|
|: c | ff g/f/e/f/ | gg a/g/f/g/ | aa ba/b/ | ag gc | ff g/f/e/f/ | gg a/g/f/g/ | aa b/g/f/g/ | fzz :| 
(:musicend:)

Melodin avviker i tonspråk och uppbyggnad från typiska totakt-pols. Möjligen är den felaktigt betecknad som Polsk?
(:music:)
